X:1
T: Cabot Hornpipe
C:Winston Fitzgerald
R:Reel
Q: 232
K:D
M:4/4
L:1/8
|:FG|AB AG FA de|fg fe d2 A2|Bc dB Ad FA|G2 E2 E2 FG|
AB AG FA de|fg fe d2 A2|1Bc dA GE AG|F2 D2 D2:|2Bc dB cb ag|f2 d2 d2|
|:ef|ge ce Ac eg|fd Ad FA de|ge cA GB ed|c2 A2 A2 Bc|
df Ad FA df|gb ce Ac eg|fd AF GB AG|F2 D2 D2:|
